assets/svg/icon_home_off.svg

<svg width="24" height="24" viewBox="0 0 24 24" fill="none" xmlns="http://www.w3.org/2000/svg">
<path d="M3.75 12.1682C3.75 10.2803 3.75 9.3363 4.17834 8.55376C4.60668 7.77122 5.38923 7.28555 6.95433 6.3142L8.60433 5.29017C10.2587 4.26339 11.086 3.75 12 3.75C12.914 3.75 13.7413 4.26339 15.3957 5.29017L17.0457 6.3142C18.6108 7.28555 19.3933 7.77122 19.8217 8.55376C20.25 9.3363 20.25 10.2803 20.25 12.1682V13.4231C20.25 16.6413 20.25 18.2504 19.2835 19.2502C18.3169 20.25 16.7613 20.25 13.65 20.25H10.35C7.23873 20.25 5.6831 20.25 4.71655 19.2502C3.75 18.2504 3.75 16.6413 3.75 13.4231V12.1682Z" stroke="#9A9A9A" stroke-width="1.41667"/>
<path d="M14.4754 16.9512H9.52539" stroke="#9A9A9A" stroke-width="1.41667" stroke-linecap="round"/>
</svg>

<svg xmlns="http://www.w3.org/2000/svg" width="24" height="24" fill="none"><path stroke="#9A9A9A" stroke-width="1.417" d="M3.75 12.168c0-1.888 0-2.832.428-3.614.429-.783 1.211-1.268 2.776-2.24l1.65-1.024C10.26 4.263 11.086 3.75 12 3.75s1.741.513 3.396 1.54l1.65 1.024c1.565.972 2.347 1.457 2.776 2.24.428.782.428 1.726.428 3.614v1.255c0 3.218 0 4.827-.966 5.827-.967 1-2.523 1-5.634 1h-3.3c-3.111 0-4.667 0-5.633-1s-.967-2.609-.967-5.827z"/><path stroke="#9A9A9A" stroke-linecap="round" stroke-width="1.417" d="M14.475 16.951h-4.95"/></svg>
